X:1
T:James Gibb editions
T:Psalm 69 (Becker) - Schütz
%%score [ ( 1 2 ) ( 3 4 ) ]
L:1/8
Q:1/4=100
M:2/2
K:F
V:1 treble nm="Soprano Alto"
V:2 treble 
V:3 bass nm="Tenor Bass"
V:4 bass 
V:1
"^Cornelius Becker\n(1561-1604)""^Psalm 69, SWV 166""^Heinrich Schütz\n(1585-1672)" d4 c2 A2 | %1
w: ~Gott hilf mir,|
w: im tie- fen|
 c2 B2 (AF) E2 | D2 C2 F2 G2 | A2 G2 c4 | A4 :|[M:2/2] B4 G2 B2 | A2 G2 (Ac) =B2 | c4 d4 | %8
w: denn das Was\- * ser|dringt mir bis an|mei- ne See-|le,|die Ström gehn|her ge- wal\- * tig-|lich und|
w: Schlamm ich gar * ver-|sink, in der gott-|lo- sen Höh-|le,||||
 B2 d2 c2 B2 | G2 A2 G4 | B4 A2 G2 | (A3 G F2) G2 | E4 D8 |] %13
w: wol- len gar be-|dek- ken mich,|die Flut will|mich * * er-|säu- fen.|
w: |||||
V:2
 A4 A2 F2 | G2 G2 (FD) ^C2 | D2 A,2 D2 E2 | F2 D2 G4 | ^F4 :|[M:2/2] G4 D2 G2 | F2 D2 (FG) F2 | %7
 E4 F4 | G2 F2 F2 D2 | (_EB,) D2 D4 | D4 F2 E2 | (C3 E A,2) D2- | D2 ^C2 D8 |] %13
V:3
 F4 E2 D2 | E2 D2 (DA,) A,2 | A,2 F,2 A,2 C2 | C2 B,2 G,4 | D4 :|[M:2/2] D4 B,2 D2 | D2 B,2 C2 D2 | %7
 G,4 B,4 | G,2 B,2 A,2 B,2 | %9
"^4. Dir ist die Torheit wohl bekannt, \ndie ich auf mich geladen, \ndu weißt mein Schulden allesamt, \nach, Herr, erzeig mir Gnade, \nbeweis an mir, Herr Zebaoth, \ndaß du nicht läßt werden zu Spott, \ndie deiner Gnade warten.\n\n8. Ich ruf zur angenehmen Zeit \nzu dir, mein Gott und Herre, \ndurch deine große Gütigkeit \nmir treue Hülf gewähre, \ner höre mich in dieser Schmach, \nund hilf mir aus dem Ungemach, \ndaß ich nicht drin versinke." (CG,) ^F,2 G,4 | %10
"^10. Tröstlich ist deine Gütigkeit, \ndrum wollst du mich erhören \ndurch deine groß Barmherzigkeit, \nin Gnad dich zu mir kehren, \nverbirg dein Antlitz nicht vor mir, \ndein'm Knecht ist angst, ich ruf zu dir, \neil, Herr, mich zu erretten.\n\n16. Ich bin elend und m ir ist angst, \ndein Hülf, Herr, rett mein Leben, \nich will dein'm Namen sagen Dank, \nLob, Ehr und Preis ihm geben, \ndaß wird dir baß gefallen zwar, \nals wenn ich brächt zu dein'm Altar \nviel Gaben groß und Opfer.\n" G,4 F,2 C2 | %11
"^17. Wenn solchs der Elend schauet an,\nwird er in Freuden schweben, \ndie Gott mit Treuen zugetan, \nwerden vor ihm recht leben, \nder Herr erhört des Armen Bitt, \nverachtet seine G'fang'nen nit, \ndie ihn von Herzen suchen.\n\n18. Es lobe Gott mit großem Schall \nder Himmel und die Erden, \nwas lebt im Meer und überall, \nsein Nam gerühmt muß werden, \ndenn Gott wird bauen seine Stadt \nund allen helfen mit viel Gnad, \ndaß sie darinnen wohnen." (A,3 C F,2) B,2 | %12
 A,4 A,8 |] %13
V:4
 D,4 A,2 D,2 | C,2 G,2 (D,F,) A,2 | D,2 F,2 D,2 C,2 | F,2 G,2 _E,4 | D,4 :|[M:2/2] G,4 G,2 G,2 | %6
 D,2 G,2 (F,E,) D,2 | C,4 B,,4 | _E,2 B,,2 F,2 G,2 | (C,_E,) D,2 G,,4 | G,,4 D,2 E,2 | %11
 (F,3 C, D,2) G,,2 | A,,4 D,8 |] %13

